img/header/navigation/icon-sleep.svg

<svg width="39" height="33" viewBox="0 0 39 33" fill="none" xmlns="http://www.w3.org/2000/svg">
<path fill-rule="evenodd" clip-rule="evenodd" d="M38.039 24.4099H38.0371C37.7719 24.4099 37.5575 24.6261 37.5556 24.8934L37.5443 27.4848L19.677 0.923499C19.4983 0.656197 19.0601 0.656197 18.8796 0.923499L1.02529 27.4659L1.03658 24.7151C1.03846 24.4478 0.822169 24.2279 0.556979 24.2279H0.555098C0.289908 24.2279 0.0754995 24.4441 0.0736169 24.7114L0.05669 29.0527C0.0548088 29.2669 0.193989 29.4546 0.395229 29.519C0.442249 29.5342 0.489267 29.5399 0.538171 29.5399C0.694277 29.5399 0.84474 29.4621 0.936896 29.3275L3.74677 25.1512V29.0564C3.74677 29.3237 3.96306 29.5418 4.22826 29.5418H14.9523C15.4996 31.3314 17.1603 32.6357 19.1201 32.6357C19.1266 32.6357 19.1327 32.6352 19.1388 32.6347L19.1389 32.6347C19.145 32.6342 19.1511 32.6338 19.1577 32.6338C19.1605 32.6338 19.1638 32.6342 19.1671 32.6347L19.1671 32.6347L19.1672 32.6347C19.1704 32.6352 19.1737 32.6357 19.1765 32.6357C19.1825 32.6357 19.1884 32.6351 19.1944 32.6343L19.2047 32.6328C19.2141 32.6314 19.2235 32.63 19.2329 32.63C21.1419 32.5807 22.75 31.2953 23.2861 29.5418H34.3303C34.5955 29.5418 34.8118 29.3237 34.8118 29.0564V25.1511L37.6216 29.3275C37.7401 29.5038 37.9583 29.5816 38.1595 29.519C38.3608 29.4564 38.5 29.2688 38.5 29.0564L38.5188 24.8971C38.5207 24.6279 38.3062 24.4118 38.0392 24.4099L38.039 24.4099ZM19.2328 31.6596L19.2274 31.66C19.2031 31.6617 19.1803 31.6634 19.1575 31.6634C18.3225 31.652 17.6454 30.9695 17.6454 30.1316C17.6454 29.58 18.4504 28.3098 19.1764 27.3524C19.9023 28.3098 20.7073 29.5799 20.7073 30.1316C20.7073 30.9563 20.0509 31.6293 19.2328 31.6596L19.2328 31.6596ZM21.6684 30.1297C21.6684 30.2738 21.6496 30.4103 21.627 30.5468L21.627 30.5468C22.1781 29.9402 22.5166 29.1382 22.5129 28.2567C22.5129 26.8027 20.3236 23.7088 19.1161 22.1694C17.9106 23.7088 15.7194 26.8045 15.7194 28.2567C15.7194 29.2122 16.1163 30.0766 16.7501 30.6965C16.7087 30.5126 16.6805 30.325 16.6805 30.1297C16.6805 28.9012 18.4503 26.6926 18.8039 26.2623C18.9864 26.0405 19.3625 26.0405 19.545 26.2623C19.9005 26.6927 21.6684 28.9013 21.6684 30.1297ZM19.4905 21.0889C19.308 20.8671 18.9319 20.8671 18.7494 21.0889C18.3413 21.5837 14.7602 25.9969 14.7602 28.257C14.7602 28.3331 14.7651 28.4083 14.7699 28.4831V28.4832C14.7718 28.5127 14.7737 28.5422 14.7753 28.5717H9.92677V25.3717C10.555 24.8598 12.637 23.0854 14.7454 20.452C16.457 18.3155 18.4111 15.2955 19.2969 11.8527C20.1828 15.2973 22.1369 18.3152 23.8484 20.452C25.9568 23.0852 28.0388 24.8597 28.6671 25.3717V28.5717H23.4628C23.4703 28.4675 23.4778 28.3632 23.4778 28.257C23.4797 25.9973 19.8987 21.5839 19.4906 21.0889H19.4905ZM29.6278 28.5715H33.8482L33.8507 23.7203L19.2801 2.06108L4.70954 23.7203V28.5715H8.96199V25.1364C8.96199 24.9847 9.03158 24.8426 9.15006 24.7516L9.15041 24.7513C9.26656 24.6595 18.8134 17.1171 18.8134 8.19016C18.8134 7.92285 19.0297 7.70484 19.2949 7.70484C19.5601 7.70484 19.7764 7.92285 19.7764 8.19016C19.7764 17.114 29.3165 24.6542 29.4392 24.7512L29.4397 24.7516C29.5582 24.8445 29.6278 24.9866 29.6278 25.1364V28.5715Z" fill="white"/>
</svg>

<svg width="39" height="33" fill="none" xmlns="http://www.w3.org/2000/svg"><path fill-rule="evenodd" clip-rule="evenodd" d="M38.039 24.41h-.002a.484.484 0 00-.481.483l-.012 2.592L19.677.923c-.179-.267-.617-.267-.797 0L1.025 27.466l.012-2.75a.483.483 0 00-.48-.488H.555a.484.484 0 00-.481.483l-.017 4.342a.486.486 0 00.481.487.485.485 0 00.399-.212l2.81-4.177v3.905c0 .268.216.486.481.486h10.724a4.368 4.368 0 004.168 3.094l.019-.001a.226.226 0 01.028 0h.027l.01-.002a4.366 4.366 0 004.081-3.091H34.33a.484.484 0 00.482-.486v-3.905l2.81 4.177a.477.477 0 00.538.191.485.485 0 00.34-.463l.019-4.159a.482.482 0 00-.48-.487zm-18.806 7.25h-.006l-.07.003a1.535 1.535 0 01-1.512-1.531c0-.552.805-1.822 1.531-2.78.726.958 1.531 2.228 1.531 2.78 0 .824-.656 1.497-1.474 1.528zm2.435-1.53c0 .144-.018.28-.041.417.551-.607.89-1.409.886-2.29 0-1.454-2.19-4.548-3.397-6.088-1.205 1.54-3.397 4.636-3.397 6.088 0 .955.397 1.82 1.031 2.44a2.567 2.567 0 01-.07-.567c0-1.229 1.77-3.437 2.124-3.868a.496.496 0 01.741 0c.355.43 2.123 2.64 2.123 3.868zm-2.177-9.041a.496.496 0 00-.742 0c-.408.495-3.989 4.908-3.989 7.168 0 .076.005.151.01.226l.005.089H9.927v-3.2c.628-.512 2.71-2.287 4.818-4.92 1.712-2.137 3.666-5.157 4.552-8.6.886 3.445 2.84 6.463 4.551 8.6 2.109 2.633 4.19 4.408 4.82 4.92v3.2h-5.205c.007-.104.015-.209.015-.315.002-2.26-3.58-6.673-3.987-7.168zm10.137 7.483h4.22l.003-4.852L19.28 2.061 4.71 23.721v4.85h4.252v-3.435c0-.151.07-.293.188-.384.117-.092 9.663-7.635 9.663-16.562 0-.267.217-.485.482-.485s.481.218.481.485c0 8.924 9.54 16.464 9.663 16.561a.49.49 0 01.189.385v3.436z" fill="#fff"/></svg>
